img/christmas-tree-blur.svg

<svg width="109" height="130" viewBox="0 0 109 130" fill="none" xmlns="http://www.w3.org/2000/svg">
<path d="M32.9506 1.72708C28.0585 1.72708 24.0293 10.0377 20.5848 18.018C20.3424 18.5782 20.157 19.0164 20.0215 19.3037C19.7291 19.9286 19.0516 21.2431 18.26 22.7659C9.92346 38.8126 8.56138 43.0074 10.9718 45.1982C12.1556 46.2756 13.6104 46.369 14.3592 46.369C14.4447 46.369 14.5232 46.369 14.5874 46.369C18.153 46.3187 21.6759 45.7585 25.099 45.1766C24.9777 45.5214 24.8351 45.8662 24.6996 46.1966C22.8811 50.492 20.3495 54.7299 17.8963 58.8386L16.7624 60.7349C13.7245 65.8563 10.1517 70.7551 6.15097 75.2803C3.25565 78.5557 2.17882 80.8902 2.63522 82.8655C2.90622 84.0435 3.69779 84.9557 4.8602 85.437C5.54482 85.7171 6.15811 85.7171 6.49329 85.7171C11.5351 85.7171 16.5057 84.9414 21.2908 83.4114C21.2552 83.5263 21.2195 83.6484 21.1767 83.7777L21.084 84.0794C20.214 86.8448 19.2013 89.5887 18.0817 92.2464C15.6285 98.0574 12.3267 103.531 9.13901 108.825C7.06379 112.272 4.91726 115.835 2.98466 119.513C1.50134 122.336 1.78659 125.058 3.71205 126.444C5.37366 127.644 7.4988 127.938 9.51697 127.938C10.6152 127.938 11.6849 127.852 12.6262 127.773C13.0541 127.737 13.4606 127.701 13.8314 127.687C17.8678 127.457 21.84 126.703 25.6837 125.97C30.6186 125.029 37.5289 123.334 43.726 121.538C45.0525 121.158 45.8155 119.764 45.4376 118.428C45.1238 117.329 44.1254 116.611 43.0414 116.611C42.8132 116.611 42.5779 116.64 42.3497 116.711C36.2952 118.464 29.5561 120.123 24.7638 121.036C21.084 121.74 17.2759 122.465 13.5605 122.673C13.154 122.695 12.7047 122.731 12.234 122.774C11.4282 122.839 10.4369 122.925 9.48845 122.925C8.53998 122.925 7.72701 122.853 7.10658 122.623C7.16364 122.422 7.25634 122.17 7.4061 121.89C9.27451 118.342 11.3783 114.844 13.4178 111.454C16.6982 106.009 20.0928 100.377 22.6886 94.2361C23.8724 91.4275 24.9421 88.5328 25.8549 85.6166L25.9405 85.358C26.5395 83.512 27.5379 80.4305 25.6695 78.6204C25.2559 78.2181 24.4928 77.6938 23.3161 77.6938C22.8241 77.6938 22.2607 77.7872 21.6189 78.0242C17.3258 79.6044 12.8473 80.4951 8.28325 80.6819C8.63269 80.1719 9.13902 79.5111 9.88068 78.6707C14.1096 73.8868 17.8678 68.7367 21.0698 63.3423L22.1894 61.4603C24.7281 57.208 27.3525 52.8193 29.3065 48.2006C29.8342 46.9508 30.8254 44.6164 30.1979 42.1598C30.0053 41.3841 29.6131 40.7735 29.0355 40.3497C28.5292 39.9834 27.9444 39.7966 27.2954 39.7966C27.0957 39.7966 26.8889 39.811 26.6821 39.8469L24.9849 40.1342C21.733 40.6873 18.3812 41.2548 15.1436 41.3553C16.2276 37.5915 20.9984 28.4045 22.7028 25.1219C23.5586 23.477 24.2289 22.1769 24.5641 21.4586C24.7139 21.1425 24.9207 20.6541 25.1845 20.0436C29.9911 8.89565 32.2731 7.09273 32.9862 6.81978C33.4854 7.06399 34.0631 7.6099 34.6264 8.14862C35.418 8.89565 37.3649 10.4184 41.0233 13.2701C46.2006 17.2997 59.1155 27.3558 62.4744 31.3351C59.4792 32.5419 56.1988 33.3823 53.0182 34.1939L51.3566 34.6177C50.4652 34.8476 49.8091 35.3217 49.4026 36.0328C49.046 36.6577 48.9319 37.376 49.0603 38.1661C49.4739 40.6729 51.3067 42.404 52.2979 43.3306C55.9278 46.7569 60.0854 49.7091 64.1003 52.5679L65.8974 53.8464C70.9821 57.4882 76.4875 60.6774 82.2425 63.3207C83.2694 63.7948 84.0039 64.197 84.5316 64.5203C80.2813 66.2011 75.8314 67.2067 71.2673 67.5012C68.9639 67.652 68.1081 68.9378 67.8015 69.692C66.8174 72.1126 68.971 74.5261 70.2475 75.9699L70.4258 76.1782C72.4369 78.4767 74.5691 80.6962 76.7727 82.7793C81.6006 87.3476 86.9634 91.1259 92.1408 94.7748C95.3641 97.0446 98.6945 99.3934 101.818 101.886C102.068 102.087 102.253 102.281 102.389 102.439C101.419 103.387 99.2579 104.141 97.7674 104.659C97.3181 104.817 96.8902 104.96 96.5123 105.111C93.0322 106.426 89.2526 107.309 85.6013 108.157C78.5199 109.809 65.9901 111.863 58.1028 112.294C56.7265 112.366 55.6711 113.551 55.7424 114.937C55.8137 116.273 56.9048 117.315 58.2312 117.315C58.2811 117.315 58.3239 117.315 58.3738 117.315C66.5321 116.869 79.447 114.758 86.7352 113.055C90.5434 112.165 94.4799 111.245 98.2666 109.816C98.616 109.687 99.0011 109.55 99.4076 109.406C101.946 108.523 105.426 107.309 107.031 104.572C108.236 102.518 107.409 99.9178 104.92 97.9353C101.683 95.3566 98.288 92.9647 95.0076 90.6518C89.9728 87.1034 84.7598 83.4258 80.1886 79.1088C78.0991 77.1335 76.0738 75.0289 74.1698 72.8525L73.963 72.6154C73.8774 72.5149 73.7918 72.4215 73.7134 72.3281C78.7053 71.7822 83.5618 70.4749 88.1757 68.435C88.4824 68.2985 89.0529 68.0471 89.5592 67.5156C90.4292 66.6033 90.7929 65.4469 90.5647 64.2617C90.1868 62.2648 88.2684 60.5625 84.3319 58.7524C78.8337 56.224 73.6135 53.1928 68.7785 49.7378C68.1794 49.3068 67.5804 48.883 66.9742 48.4521C63.0948 45.6938 59.0798 42.8422 55.7067 39.653C55.4429 39.4087 55.179 39.1502 54.9294 38.8844C58.2883 38.0224 61.7398 37.1102 65.0203 35.7095C65.5979 35.4653 67.1311 34.8045 67.8585 33.174C68.8284 30.9975 67.8371 28.8067 59.4008 21.5951C54.5942 17.4864 48.5112 12.7457 44.0684 9.29071C41.1802 7.04245 38.6842 5.10306 38.0424 4.49251C37.1438 3.64493 36.0385 2.59622 34.5694 2.04313C34.0203 1.84201 33.4854 1.74145 32.9577 1.74145M32.9577 0.304861C33.6637 0.304861 34.3697 0.434149 35.0686 0.692734C36.8086 1.34638 38.0923 2.55312 39.0194 3.43662C39.6113 3.99689 42.1857 6.00093 44.9099 8.11989L44.0898 9.2979L44.9598 8.16299C49.4097 11.6252 55.4999 16.3659 60.3207 20.4889C68.6929 27.6575 70.597 30.5091 69.1564 33.7486C68.2008 35.8963 66.2255 36.7439 65.5765 37.0168C63.0591 38.0943 60.4491 38.8916 57.7819 39.6099C60.8484 42.3322 64.3713 44.8319 67.7872 47.2669C68.4005 47.6979 68.9995 48.1288 69.5986 48.5598C74.3552 51.9645 79.5112 54.9526 84.9167 57.4379C89.3168 59.4635 91.4918 61.4819 91.9625 63.9816C92.2691 65.6193 91.7628 67.2642 90.579 68.4996C89.873 69.2323 89.1099 69.5699 88.7463 69.7351C84.8383 71.4662 80.752 72.6873 76.5659 73.3768C78.0421 74.993 79.5825 76.5589 81.1585 78.0529C85.6512 82.3052 90.8215 85.947 95.8134 89.4666C99.1081 91.7867 102.517 94.193 105.79 96.8004C108.871 99.2569 109.834 102.59 108.243 105.298C106.368 108.48 102.602 109.794 99.8569 110.757L99.7927 110.778C99.4219 110.908 99.0724 111.03 98.7515 111.152C94.8792 112.61 90.8999 113.544 87.049 114.442C79.6966 116.158 66.6676 118.285 58.4309 118.737C58.3596 118.737 58.2883 118.737 58.2098 118.737C56.1275 118.737 54.4159 117.092 54.3018 115.002C54.1877 112.825 55.8493 110.958 58.0101 110.843C65.8261 110.419 78.2418 108.386 85.2662 106.742C88.8746 105.901 92.5972 105.032 95.9988 103.746C96.3911 103.595 96.8261 103.445 97.2896 103.287C98.0384 103.028 99.0938 102.654 99.9781 102.252C97.1612 100.061 94.1946 97.9712 91.3207 95.9456C86.1005 92.2608 80.7021 88.4538 75.7886 83.8208C73.5565 81.709 71.3886 79.4536 69.349 77.1191L69.1707 76.918C67.7658 75.3378 65.1486 72.3856 66.4679 69.1389C66.8174 68.2841 67.9726 66.2657 71.1603 66.0574C74.4693 65.8419 77.7283 65.2386 80.8875 64.2689C75.3179 61.6543 69.9979 58.5369 65.0559 55.0029L63.2659 53.7243C59.2082 50.8368 55.0078 47.8559 51.3067 44.365C50.2726 43.3953 48.1332 41.3697 47.6412 38.3816C47.4557 37.2539 47.6269 36.2123 48.1546 35.2929C48.7537 34.2514 49.7378 33.5331 50.9929 33.2099L52.6616 32.7861C55.0934 32.1684 57.5894 31.5291 59.9427 30.7246C55.2931 26.1778 44.5105 17.7881 40.1461 14.3906C36.3451 11.4312 34.4838 9.97309 33.6423 9.18297C33.4426 8.99621 33.2144 8.77354 32.9934 8.5796C32.1234 9.5062 30.0553 12.3147 26.4825 20.6038C26.2115 21.2287 25.9975 21.7315 25.8478 22.0548C25.4983 22.809 24.8137 24.1235 23.9579 25.7755C22.6101 28.3686 18.9161 35.4797 17.2046 39.7751C19.6934 39.5524 22.2536 39.1214 24.7424 38.6976L26.4468 38.4103C26.7392 38.36 27.0244 38.3385 27.2954 38.3385C28.251 38.3385 29.121 38.6186 29.877 39.1717C30.7185 39.7894 31.3032 40.6945 31.5814 41.7935C32.323 44.7241 31.1677 47.4464 30.6186 48.7537C28.6219 53.4586 25.9761 57.8976 23.4088 62.1858L22.2892 64.0678C19.1871 69.2969 15.5644 74.3034 11.5066 78.9651C14.787 78.5773 18.0104 77.8015 21.1268 76.6594C21.8756 76.3865 22.6173 76.2428 23.3161 76.2428C24.5855 76.2428 25.7764 76.7169 26.6536 77.5717C29.1638 80.0139 27.9444 83.7705 27.2883 85.7889L27.2027 86.0475C26.2756 88.9997 25.1917 91.9375 23.9936 94.7892C21.3621 101.024 17.9391 106.698 14.6302 112.186C12.8117 115.21 10.929 118.328 9.23172 121.474C9.31017 121.474 9.39574 121.474 9.48132 121.474C10.3727 121.474 11.3355 121.395 12.1128 121.33C12.5977 121.287 13.0541 121.251 13.4749 121.23C17.0976 121.021 20.8558 120.31 24.4928 119.613C29.2423 118.708 35.9315 117.063 41.9503 115.318C42.3069 115.217 42.6706 115.16 43.0414 115.16C44.7815 115.16 46.329 116.338 46.8068 118.019C47.0992 119.032 46.9779 120.102 46.4716 121.021C45.9653 121.948 45.1309 122.616 44.1254 122.903C37.8926 124.713 30.9324 126.423 25.9547 127.371C22.0681 128.111 18.0532 128.879 13.9241 129.109C13.5676 129.131 13.1754 129.159 12.7546 129.195C11.7847 129.274 10.6865 129.368 9.52411 129.368C6.70723 129.368 4.5393 128.793 2.89195 127.608C0.353195 125.776 -0.10321 122.336 1.73668 118.838C3.69067 115.131 5.84433 111.547 7.92668 108.085C11.093 102.827 14.3663 97.3966 16.7838 91.6789C17.6324 89.6749 18.4098 87.6134 19.1158 85.5375C15.0081 86.6078 10.7792 87.1465 6.51468 87.1465C6.11533 87.1465 5.28095 87.1465 4.34674 86.7586C2.76359 86.1122 1.64397 84.8049 1.26601 83.1815C0.695503 80.7034 1.8793 77.9667 5.1098 74.3106C9.05344 69.85 12.5692 65.0303 15.5644 59.9878L16.6982 58.0915C18.859 54.4785 21.084 50.7506 22.8027 47.0083C20.0714 47.4321 17.3686 47.7625 14.6373 47.7984C14.5731 47.7984 14.4875 47.7984 14.3877 47.7984C12.6262 47.7984 11.1714 47.2812 10.0447 46.2541C6.73575 43.2373 8.55424 38.3888 17.0263 22.0907C17.8107 20.5751 18.4882 19.275 18.7592 18.686C18.8876 18.4058 19.073 17.9821 19.3012 17.4505C23.0523 8.75199 27.1956 0.276123 32.9862 0.276123L32.9577 0.304861Z" fill="#25C6F9"/>
</svg>

<svg width="109" height="130" fill="none" xmlns="http://www.w3.org/2000/svg"><path d="M32.95 1.727c-4.892 0-8.92 8.31-12.365 16.291-.243.56-.428.998-.564 1.286-.292.625-.97 1.94-1.761 3.462-8.337 16.047-9.699 20.241-7.288 22.432 1.184 1.078 2.638 1.171 3.387 1.171h.228c3.566-.05 7.089-.61 10.512-1.192-.121.344-.264.69-.4 1.02-1.818 4.295-4.35 8.533-6.803 12.642l-1.134 1.896A95.902 95.902 0 0 1 6.151 75.28c-2.895 3.276-3.972 5.61-3.516 7.585.271 1.178 1.063 2.09 2.225 2.572.685.28 1.298.28 1.633.28 5.042 0 10.013-.776 14.798-2.306-.036.115-.072.237-.114.367l-.093.301a93.031 93.031 0 0 1-3.002 8.167c-2.454 5.811-5.755 11.285-8.943 16.579-2.075 3.447-4.222 7.01-6.154 10.688-1.484 2.823-1.198 5.545.727 6.931 1.662 1.2 3.787 1.494 5.805 1.494 1.098 0 2.168-.086 3.11-.165.427-.036.834-.072 1.204-.086 4.037-.23 8.009-.984 11.853-1.717 4.935-.941 11.845-2.636 18.042-4.432 1.327-.38 2.09-1.774 1.712-3.11a2.499 2.499 0 0 0-2.397-1.817 2.33 2.33 0 0 0-.691.1c-6.055 1.753-12.794 3.412-17.586 4.325-3.68.704-7.488 1.429-11.204 1.637-.406.022-.855.058-1.326.101-.806.065-1.797.151-2.746.151-.948 0-1.761-.072-2.381-.302.057-.201.15-.453.3-.733 1.868-3.548 3.971-7.046 6.01-10.436 3.281-5.445 6.676-11.077 9.272-17.218a96.483 96.483 0 0 0 3.166-8.62l.085-.258c.6-1.846 1.598-4.928-.27-6.738-.414-.402-1.177-.926-2.354-.926-.492 0-1.055.093-1.697.33a43.686 43.686 0 0 1-13.336 2.658c.35-.51.856-1.17 1.598-2.011A101.157 101.157 0 0 0 21.07 63.342l1.12-1.882c2.538-4.252 5.162-8.64 7.116-13.26.528-1.25 1.52-3.584.892-6.04-.193-.776-.585-1.386-1.163-1.81a2.906 2.906 0 0 0-1.74-.553c-.2 0-.406.014-.613.05l-1.697.287c-3.252.553-6.604 1.12-9.841 1.221 1.084-3.763 5.854-12.95 7.559-16.233.856-1.645 1.526-2.945 1.861-3.663.15-.317.357-.805.62-1.415 4.807-11.148 7.09-12.951 7.802-13.224.5.244 1.077.79 1.64 1.329.792.747 2.739 2.27 6.397 5.121 5.178 4.03 18.092 14.086 21.451 18.065-2.995 1.207-6.275 2.047-9.456 2.859l-1.661.424c-.892.23-1.548.704-1.954 1.415-.357.625-.471 1.343-.343 2.133.414 2.507 2.247 4.238 3.238 5.165 3.63 3.426 7.787 6.378 11.802 9.237l1.797 1.278a99.369 99.369 0 0 0 16.346 9.475c1.026.474 1.76.876 2.289 1.2a43.611 43.611 0 0 1-13.265 2.98c-2.303.151-3.159 1.437-3.465 2.191-.985 2.42 1.169 4.834 2.445 6.278l.179.208a97.092 97.092 0 0 0 6.347 6.601c4.828 4.569 10.19 8.347 15.368 11.996 3.223 2.27 6.553 4.618 9.677 7.111.25.201.435.395.571.553-.97.948-3.131 1.702-4.622 2.22-.449.158-.877.301-1.255.452-3.48 1.315-7.26 2.198-10.91 3.046-7.082 1.652-19.612 3.706-27.5 4.137-1.375.072-2.43 1.257-2.36 2.643a2.498 2.498 0 0 0 2.49 2.378h.142c8.158-.446 21.073-2.557 28.361-4.26 3.808-.89 7.745-1.81 11.532-3.239.349-.129.734-.266 1.14-.41 2.539-.883 6.019-2.097 7.624-4.834 1.205-2.054.378-4.654-2.111-6.637-3.237-2.578-6.632-4.97-9.912-7.283-5.035-3.549-10.248-7.226-14.82-11.543a92.04 92.04 0 0 1-6.018-6.256l-.207-.238c-.086-.1-.171-.194-.25-.287a48.813 48.813 0 0 0 14.463-3.893c.306-.136.877-.388 1.383-.92.87-.912 1.234-2.068 1.006-3.253-.378-1.997-2.297-3.7-6.233-5.51a95.185 95.185 0 0 1-15.553-9.014c-.6-.431-1.199-.855-1.805-1.286-3.88-2.758-7.894-5.61-11.267-8.799a15.765 15.765 0 0 1-.778-.769c3.36-.862 6.81-1.774 10.091-3.175.578-.244 2.111-.905 2.839-2.535.97-2.177-.022-4.367-8.458-11.579-4.807-4.109-10.89-8.85-15.333-12.304-2.888-2.249-5.384-4.188-6.026-4.798-.898-.848-2.004-1.897-3.473-2.45a4.659 4.659 0 0 0-1.611-.302m0-1.436c.706 0 1.412.13 2.11.388 1.74.653 3.024 1.86 3.951 2.744.592.56 3.167 2.564 5.89 4.683l-.82 1.178.87-1.135c4.45 3.462 10.54 8.203 15.362 12.326 8.372 7.168 10.276 10.02 8.835 13.26-.955 2.147-2.93 2.995-3.58 3.268-2.517 1.077-5.127 1.875-7.794 2.593 3.066 2.722 6.59 5.222 10.005 7.657.613.43 1.212.862 1.812 1.293a93.431 93.431 0 0 0 15.318 8.878c4.4 2.026 6.575 4.044 7.046 6.544.306 1.637-.2 3.282-1.384 4.518-.706.732-1.47 1.07-1.833 1.235a50.196 50.196 0 0 1-12.18 3.642 91.334 91.334 0 0 0 4.593 4.676c4.492 4.252 9.662 7.894 14.654 11.414 3.295 2.32 6.704 4.726 9.977 7.333 3.081 2.457 4.044 5.79 2.453 8.498-1.875 3.182-5.641 4.496-8.386 5.459l-.064.021c-.371.13-.72.252-1.042.374-3.872 1.458-7.851 2.392-11.702 3.29-7.352 1.716-20.381 3.843-28.618 4.295h-.221c-2.083 0-3.794-1.645-3.908-3.735-.114-2.177 1.547-4.044 3.708-4.159 7.816-.424 20.232-2.457 27.256-4.101 3.609-.841 7.331-1.71 10.733-2.996.392-.151.827-.301 1.29-.459.75-.259 1.805-.633 2.69-1.035-2.818-2.191-5.784-4.28-8.658-6.306-5.22-3.685-10.619-7.492-15.532-12.125a98.29 98.29 0 0 1-6.44-6.702l-.178-.201c-1.405-1.58-4.022-4.532-2.703-7.78.35-.854 1.505-2.872 4.692-3.08a42.552 42.552 0 0 0 9.728-1.79 101.212 101.212 0 0 1-15.832-9.265l-1.79-1.279c-4.058-2.887-8.258-5.868-11.96-9.359-1.033-.97-3.173-2.995-3.665-5.983-.185-1.128-.014-2.17.514-3.09.599-1.04 1.583-1.759 2.838-2.082l1.669-.424c2.431-.618 4.927-1.257 7.28-2.061-4.649-4.547-15.431-12.937-19.796-16.334-3.8-2.96-5.662-4.418-6.504-5.208-.2-.187-.428-.41-.649-.603-.87.926-2.938 3.735-6.51 12.024-.271.625-.486 1.128-.635 1.45-.35.755-1.034 2.07-1.89 3.722-1.348 2.593-5.042 9.704-6.753 14 2.488-.224 5.049-.655 7.537-1.078l1.705-.288a5.01 5.01 0 0 1 .848-.071c.956 0 1.826.28 2.582.833.841.617 1.426 1.523 1.704 2.622.742 2.93-.413 5.652-.962 6.96-1.997 4.705-4.643 9.144-7.21 13.432l-1.12 1.882a102.053 102.053 0 0 1-10.782 14.897 42.414 42.414 0 0 0 9.62-2.306c.749-.273 1.49-.416 2.19-.416 1.268 0 2.46.474 3.337 1.329 2.51 2.442 1.29 6.198.634 8.217l-.085.258a100.06 100.06 0 0 1-3.21 8.742c-2.63 6.235-6.054 11.909-9.363 17.397-1.818 3.024-3.701 6.142-5.398 9.288h.25c.89 0 1.854-.079 2.63-.144.486-.043.942-.079 1.363-.1 3.623-.209 7.38-.92 11.018-1.617 4.75-.905 11.439-2.55 17.457-4.295.357-.101.72-.158 1.091-.158a3.938 3.938 0 0 1 3.766 2.859 3.933 3.933 0 0 1-.335 3.002 3.868 3.868 0 0 1-2.347 1.882c-6.232 1.81-13.193 3.52-18.17 4.468-3.887.74-7.902 1.508-12.03 1.738-.357.022-.75.05-1.17.086-.97.079-2.069.173-3.23.173-2.818 0-4.986-.575-6.633-1.76-2.539-1.832-2.995-5.272-1.155-8.77 1.954-3.707 4.107-7.291 6.19-10.753 3.166-5.258 6.44-10.688 8.857-16.406a90.594 90.594 0 0 0 2.332-6.142 49.94 49.94 0 0 1-12.601 1.61c-.4 0-1.234 0-2.168-.388-1.583-.647-2.703-1.954-3.081-3.578-.57-2.478.613-5.214 3.844-8.87a94.706 94.706 0 0 0 10.454-14.323l1.134-1.896c2.161-3.614 4.386-7.341 6.105-11.084-2.732.424-5.434.755-8.166.79h-.25c-1.76 0-3.216-.517-4.342-1.544-3.31-3.017-1.49-7.865 6.981-24.163.785-1.516 1.462-2.816 1.733-3.405.129-.28.314-.704.542-1.235C23.052 8.752 27.196.276 32.986.276l-.028.029Z" fill="#25C6F9"/></svg>
